X:156
T: Sirass édesanyám...
L: 1/8
K: F
M: 3/4
fggfff | fggffd | 
fggffd | BcccdB | 
fggffd | BccccB | 
GGBBcF | BBccGG | 

